docs/img/lorena-bg.svg

<svg width="3355" height="525" fill="none" xmlns="http://www.w3.org/2000/svg"><path fill-rule="evenodd" clip-rule="evenodd" d="M461.039 516.246V389.971H197.896c-23.097 0-34.076-6.465-34.076-31.199V8.282H0V450.93c0 21.042 10.882 39.916 22.478 49.349 13.77 11.616 35.527 15.975 55.096 15.975h383.465v-.007z" fill="#282828"/><path d="M22.8 499.896l-.006-.006C11.307 490.547.5 471.813.5 450.929V8.782h162.82v349.99c0 12.426 2.756 20.41 8.556 25.258 5.776 4.829 14.453 6.441 26.02 6.441h262.643v125.282H77.574c-19.524 0-41.137-4.354-54.773-15.857z" stroke="#fff" stroke-opacity=".1"/><path fill-rule="evenodd" clip-rule="evenodd" d="M974.997 52.736C920.411 2.196 829.444 0 752.289 0 675.14 0 584.166 2.196 529.573 52.736c-55.318 51.262-57.493 140.623-57.493 209.468 0 67.386 2.182 157.47 57.493 209.476 53.854 50.659 147.011 52.855 222.716 52.855 75.684 0 168.854-2.196 222.708-52.855 55.323-51.999 57.503-142.09 57.503-209.476 0-68.852-2.18-158.213-57.503-209.468zM863.643 262.197c0 41.011 0 69.582-18.923 97.41-22.569 33.699-49.503 37.348-92.438 37.348-41.485 0-70.602-3.649-92.432-37.348-16.74-25.632-18.922-57.121-18.922-97.41 0-42.477.718-70.325 18.922-97.416 21.83-33.693 50.215-37.348 92.432-37.348 42.935 0 69.862 3.662 92.438 37.348 19.655 28.571 18.923 52.743 18.923 97.416z" fill="#282828"/><path d="M974.655 471.316l.342.364-.343-.364c-26.825 25.234-63.471 38.422-102.911 45.296-39.437 6.873-81.611 7.423-119.454 7.423-37.854 0-80.03-.55-119.466-7.423-39.439-6.873-76.081-20.062-102.907-45.296l-.343.364.343-.364c-27.551-25.905-41.892-61.313-49.341-98.704-7.448-37.391-7.995-76.714-7.995-110.408 0-34.423.545-73.93 7.993-111.23 7.447-37.298 21.788-72.34 49.34-97.871 27.197-25.179 63.482-38.337 102.646-45.195C671.722 1.05 713.713.5 752.289.5c38.579 0 80.569.55 119.731 7.408 39.162 6.858 75.443 20.016 102.637 45.194 27.553 25.53 41.893 60.569 49.343 97.867 7.46 37.3 8 76.808 8 111.235 0 33.694-.54 73.018-8 110.411-7.45 37.391-21.79 72.8-49.345 98.701zm-168.354-79.925c15.036-5.164 27.496-14.576 38.834-31.505 19.008-27.954 19.008-56.665 19.008-97.598v-.091l.002-4.704c.025-41.68.039-65.298-19.011-92.992-11.341-16.922-23.801-26.334-38.836-31.499-15.008-5.157-32.549-6.069-54.016-6.069-21.109 0-38.834.911-54.022 6.065-15.214 5.164-27.855 14.575-38.827 31.507-18.3 27.234-19.005 55.237-19.005 97.692 0 40.278 2.172 71.911 19.003 97.681 10.973 16.941 23.8 26.352 39.105 31.514 15.278 5.153 33.002 6.063 53.746 6.063 21.467 0 39.01-.909 54.019-6.064z" stroke="#fff" stroke-opacity=".1"/><path fill-rule="evenodd" clip-rule="evenodd" d="M1090.49 516.253h164.87V174.456c0-12.346-.72-22.495 9.49-31.943 7.28-7.25 16.05-7.973 25.53-7.973h91.18c15.32 0 33.56-.737 45.97 12.332 16.68 16.629 15.88 66.646 1.46 84.902-11.68 13.792-31.37 15.238-45.96 15.238h-26.26c-42.32 0-73.68 23.233-73.68 57.331v10.893c0 24.672 18.24 46.438 35.01 68.934l98.48 132.083h198.44l-145.9-154.579H1491c39.4 0 75.86-18.137 94.83-63.129 17.51-41.363 18.97-101.6 18.97-124.818 0-38.457-4.38-83.45-26.26-116.108-33.56-49.337-89.73-49.337-121.83-49.337h-277.96c-19.7 0-49.59 3.629-68.57 24.672-18.23 20.32-19.7 49.35-19.7 72.569v410.73h.01z" fill="#282828"/><path d="M1429.37 232.097v-.007l.01-.006c3.67-4.642 6.44-11.267 8.3-18.82 1.85-7.56 2.79-16.085 2.74-24.554-.04-8.468-1.05-16.895-3.12-24.259-2.05-7.354-5.16-13.687-9.42-17.928-6.29-6.631-14.06-9.749-22.15-11.21-7.27-1.313-14.83-1.294-21.84-1.277-.78.002-1.56.004-2.33.004h-91.18c-9.49 0-18.44.715-25.88 8.112-9.73 9.004-9.69 18.683-9.64 29.972v343.629h-163.88v-410.23c0-23.233 1.48-52.074 19.57-72.235 18.83-20.874 48.53-24.506 68.2-24.506h277.96c32.13 0 88.02.025 121.42 49.117 21.79 32.526 26.17 77.383 26.17 115.828 0 23.226-1.47 83.366-18.93 124.623v.001c-18.88 44.783-55.15 62.823-94.37 62.823h-23.04l.79.843 145.11 153.736h-197.03l-98.33-131.882c-1.51-2.027-3.03-4.047-4.55-6.062-6.92-9.183-13.77-18.271-19.22-27.543-6.63-11.3-11.14-22.819-11.14-35.03v-10.893c0-33.707 31.01-56.831 73.18-56.831h26.26c14.57 0 34.5-1.428 46.34-15.415z" stroke="#fff" stroke-opacity=".1"/><path fill-rule="evenodd" clip-rule="evenodd" d="M2120.23 516.253V392.882h-249.35c-10.21 0-23.33.73-31.35-6.528-3.64-2.898-7.29-8.71-7.29-18.866v-55.155h278.51V202.025h-278.51v-38.45c0-6.535 0-18.137 8.01-24.678 5.84-5.082 16.05-7.258 25.52-7.258h252.27V8.282h-366.72c-18.24 0-43.02 2.906-61.98 20.327-18.95 17.414-21.87 38.45-21.87 58.04V434.98c0 23.942 0 44.261 23.34 63.851 19.69 15.975 40.82 17.421 61.97 17.421h367.45z" fill="#282828"/><path d="M1832.24 311.833h-.5v55.655c0 10.272 3.69 16.236 7.47 19.248 4.12 3.719 9.51 5.369 15.11 6.1 4.68.61 9.56.582 14 .556.87-.005 1.73-.01 2.56-.01h248.85v122.371h-366.95c-21.13 0-42.11-1.45-61.65-17.307-11.6-9.731-17.37-19.622-20.26-30.041-2.9-10.444-2.9-21.439-2.9-33.424V86.648c0-19.54 2.91-40.4 21.71-57.671 18.82-17.29 43.44-20.195 61.64-20.195h366.22V131.14h-251.77c-9.51 0-19.86 2.178-25.84 7.375-4.12 3.367-6.16 8.02-7.17 12.617-1.02 4.588-1.02 9.167-1.02 12.429v38.965h278.51v109.308h-278.01z" stroke="#fff" stroke-opacity=".1"/><path fill-rule="evenodd" clip-rule="evenodd" d="M2727.58 5.859h-127v305.414c0 3.663 0 12.447-8.03 12.447-5.84 0-10.23-7.318-13.87-12.447L2392.56 47.606C2361.16 2.926 2312.26 0 2284.52 0c-59.12 0-114.6 24.171-114.6 90.813v427.744h127.01V214.602c0-14.65 8.03-14.65 10.21-14.65 5.11 0 10.22 7.318 13.87 12.454l184.68 261.471c32.11 45.536 72.25 50.658 110.94 50.658 107.3 0 110.94-73.349 110.94-91.662V5.859h.01z" fill="#282828"/><path d="M2296.43 214.602v303.455h-126.01V90.812c0-33.157 13.79-55.704 34.91-69.982C2226.48 6.533 2255.02.5 2284.52.5c27.72 0 76.39 2.933 107.63 47.393v.001l186.12 263.667v.002c.38.535.77 1.099 1.17 1.678 1.51 2.163 3.16 4.545 4.98 6.518 2.31 2.498 4.99 4.461 8.13 4.461 2.11 0 3.72-.578 4.95-1.535 1.22-.953 2.02-2.253 2.54-3.638 1.04-2.74 1.04-5.925 1.04-7.748V6.359h125.99v426.514c0 9.129-.91 31.916-15.14 52.413-14.21 20.464-41.77 38.749-95.3 38.749-19.32 0-38.96-1.281-57.76-8.222-18.79-6.937-36.77-19.537-52.78-42.224v-.001l-184.67-261.471v-.001l-.19-.271c-1.79-2.508-3.93-5.523-6.25-7.938-2.38-2.481-5.06-4.455-7.84-4.455h-.01c-1.1 0-3.81 0-6.23 1.941-2.44 1.961-4.47 5.798-4.47 13.209z" stroke="#fff" stroke-opacity=".1"/><path fill-rule="evenodd" clip-rule="evenodd" d="M3162.97 61.972C3138.95 5.1 3095.28 0 3046.5 0c-78.61 0-100.46 24.064-116.46 61.972l-188.65 454.281h173.37l40.02-105.001h183.45l40.02 105.001h173.25l-188.53-454.28zm-168.89 232.606l45.87-129.064c5.74-14.355 7.35-14.481 13.1 0l45.87 129.064h-104.84z" fill="#282828"/><path d="M2954.78 410.752h-.34l-.13.322-39.9 104.679h-172.27L2930.5 62.167c7.99-18.915 17.4-34.297 34.56-44.972C2982.23 6.512 3007.24.5 3046.5.5c24.39 0 47.41 1.278 67.32 9.62 19.89 8.329 36.72 23.72 48.69 52.047l188.24 453.586H3178.6l-39.91-104.679-.12-.322h-183.79zm38.83-116.341l-.24.667h106.26l-.24-.667-45.87-129.065v-.009l-.01-.008c-1.43-3.619-2.63-6.358-3.7-8.195-.53-.917-1.05-1.638-1.58-2.133-.53-.497-1.1-.806-1.74-.801-.63.006-1.21.324-1.73.826-.53.501-1.05 1.225-1.58 2.144-1.07 1.84-2.26 4.571-3.69 8.158v.009l-.01.009-45.87 129.065z" stroke="#fff" stroke-opacity=".1"/></svg>

<svg width="3355" height="525" viewBox="0 0 3355 525" fill="none" xmlns="http://www.w3.org/2000/svg">
<path fill-rule="evenodd" clip-rule="evenodd" d="M461.039 516.246V389.971H197.896C174.799 389.971 163.82 383.506 163.82 358.772V8.2821H0V450.929C0 471.971 10.8815 490.845 22.4783 500.278C36.2487 511.894 58.0049 516.253 77.5736 516.253H461.039V516.246Z" fill="#282828"/>
<path d="M22.8008 499.896L22.7939 499.89C11.3075 490.547 0.5 471.813 0.5 450.929V8.7821H163.32V358.772C163.32 371.198 166.076 379.182 171.876 384.03C177.652 388.859 186.329 390.471 197.896 390.471H460.539V515.753H77.5736C58.0497 515.753 36.4374 511.399 22.8008 499.896Z" stroke="white" stroke-opacity="0.1"/>
<path fill-rule="evenodd" clip-rule="evenodd" d="M974.997 52.7356C920.411 2.19619 829.444 0 752.289 0C675.14 0 584.166 2.19619 529.573 52.7356C474.255 103.998 472.08 193.359 472.08 262.204C472.08 329.59 474.262 419.674 529.573 471.68C583.427 522.339 676.584 524.535 752.289 524.535C827.973 524.535 921.143 522.339 974.997 471.68C1030.32 419.681 1032.5 329.59 1032.5 262.204C1032.5 193.352 1030.32 103.991 974.997 52.7356ZM863.643 262.197C863.643 303.208 863.643 331.779 844.72 359.607C822.151 393.306 795.217 396.955 752.282 396.955C710.797 396.955 681.68 393.306 659.85 359.607C643.11 333.975 640.928 302.486 640.928 262.197C640.928 219.72 641.646 191.872 659.85 164.781C681.68 131.088 710.065 127.433 752.282 127.433C795.217 127.433 822.144 131.095 844.72 164.781C864.375 193.352 863.643 217.524 863.643 262.197Z" fill="#282828"/>
<path d="M974.655 471.316L974.997 471.68L974.654 471.316C947.829 496.55 911.183 509.738 871.743 516.612C832.306 523.485 790.132 524.035 752.289 524.035C714.435 524.035 672.259 523.485 632.823 516.612C593.384 509.739 556.742 496.55 529.916 471.316L529.573 471.68L529.916 471.316C502.365 445.411 488.024 410.003 480.575 372.612C473.127 335.221 472.58 295.898 472.58 262.204C472.58 227.781 473.125 188.274 480.573 150.974C488.02 113.676 502.361 78.6348 529.913 53.1025C557.11 27.9245 593.395 14.7662 632.559 7.90803C671.722 1.04993 713.713 0.5 752.289 0.5C790.868 0.5 832.858 1.04993 872.02 7.90803C911.182 14.7662 947.463 27.9245 974.657 53.1025C1002.21 78.6311 1016.55 113.671 1024 150.969C1031.46 188.269 1032 227.777 1032 262.204C1032 295.898 1031.46 335.222 1024 372.615C1016.55 410.006 1002.21 445.415 974.655 471.316ZM806.301 391.391C821.337 386.227 833.797 376.815 845.135 359.886C864.143 331.932 864.143 303.221 864.143 262.288V262.197C864.143 260.604 864.144 259.036 864.145 257.493C864.17 215.813 864.184 192.195 845.134 164.501C833.793 147.579 821.333 138.167 806.298 133.002C791.29 127.845 773.749 126.933 752.282 126.933C731.173 126.933 713.448 127.844 698.26 132.998C683.046 138.162 670.405 147.573 659.433 164.505C641.133 191.739 640.428 219.742 640.428 262.197C640.428 302.475 642.6 334.108 659.431 359.878C670.404 376.819 683.231 386.23 698.536 391.392C713.814 396.545 731.538 397.455 752.282 397.455C773.749 397.455 791.292 396.546 806.301 391.391Z" stroke="white" stroke-opacity="0.1"/>
<path fill-rule="evenodd" clip-rule="evenodd" d="M1090.49 516.253H1255.36V174.456C1255.36 162.11 1254.64 151.961 1264.85 142.513C1272.13 135.263 1280.9 134.54 1290.38 134.54H1381.56C1396.88 134.54 1415.12 133.803 1427.53 146.872C1444.21 163.501 1443.41 213.518 1428.99 231.774C1417.31 245.566 1397.62 247.012 1383.03 247.012H1356.77C1314.45 247.012 1283.09 270.245 1283.09 304.343V315.236C1283.09 339.908 1301.33 361.674 1318.1 384.17L1416.58 516.253H1615.02L1469.12 361.674H1491C1530.4 361.674 1566.86 343.537 1585.83 298.545C1603.34 257.182 1604.8 196.945 1604.8 173.727C1604.8 135.27 1600.42 90.2779 1578.54 57.6186C1544.98 8.2821 1488.81 8.2821 1456.71 8.2821H1178.75C1159.05 8.2821 1129.16 11.9109 1110.18 32.9538C1091.95 53.2738 1090.48 82.3042 1090.48 105.523V516.253H1090.49Z" fill="#282828"/>
<path d="M1429.37 232.097L1429.37 232.09L1429.38 232.084C1433.05 227.442 1435.82 220.817 1437.68 213.264C1439.53 205.704 1440.47 197.179 1440.42 188.71C1440.38 180.242 1439.37 171.815 1437.3 164.451C1435.25 157.097 1432.14 150.764 1427.88 146.523C1421.59 139.892 1413.82 136.774 1405.73 135.313C1398.46 134 1390.9 134.019 1383.89 134.036C1383.11 134.038 1382.33 134.04 1381.56 134.04H1290.38C1280.89 134.04 1271.94 134.755 1264.5 142.152C1254.77 151.156 1254.81 160.835 1254.86 172.124C1254.86 172.894 1254.86 173.671 1254.86 174.456V515.753H1090.98V105.523C1090.98 82.2898 1092.46 53.4492 1110.55 33.288C1129.38 12.414 1159.08 8.7821 1178.75 8.7821H1456.71C1488.84 8.7821 1544.73 8.80662 1578.13 57.8991C1599.92 90.4249 1604.3 135.282 1604.3 173.727C1604.3 196.953 1602.83 257.093 1585.37 298.35L1585.37 298.351C1566.49 343.134 1530.22 361.174 1491 361.174H1469.12H1467.96L1468.75 362.017L1613.86 515.753H1416.83L1318.5 383.871C1316.99 381.844 1315.47 379.824 1313.95 377.809C1307.03 368.626 1300.18 359.538 1294.73 350.266C1288.1 338.966 1283.59 327.447 1283.59 315.236V304.343C1283.59 270.636 1314.6 247.512 1356.77 247.512H1383.03C1397.6 247.512 1417.53 246.084 1429.37 232.097Z" stroke="white" stroke-opacity="0.1"/>
<path fill-rule="evenodd" clip-rule="evenodd" d="M2120.23 516.253V392.882H1870.88C1860.67 392.882 1847.55 393.612 1839.53 386.354C1835.89 383.456 1832.24 377.644 1832.24 367.488V312.333H2110.75V202.025H1832.24V163.575C1832.24 157.04 1832.24 145.438 1840.25 138.897C1846.09 133.815 1856.3 131.639 1865.77 131.639H2118.04V8.2821H1751.32C1733.08 8.2821 1708.3 11.188 1689.34 28.6088C1670.39 46.0227 1667.47 67.0583 1667.47 86.6481V434.981C1667.47 458.923 1667.47 479.242 1690.81 498.832C1710.5 514.807 1731.63 516.253 1752.78 516.253H2120.23Z" fill="#282828"/>
<path d="M1832.24 311.833H1831.74V312.333V367.488C1831.74 377.76 1835.43 383.724 1839.21 386.736C1843.33 390.455 1848.72 392.105 1854.32 392.836C1859 393.446 1863.88 393.418 1868.32 393.392C1869.19 393.387 1870.05 393.382 1870.88 393.382H2119.73V515.753H1752.78C1731.65 515.753 1710.67 514.303 1691.13 498.446C1679.53 488.715 1673.76 478.824 1670.87 468.405C1667.97 457.961 1667.97 446.966 1667.97 434.981V86.6481C1667.97 67.1083 1670.88 46.2489 1689.68 28.977C1708.5 11.6865 1733.12 8.7821 1751.32 8.7821H2117.54V131.139H1865.77C1856.26 131.139 1845.91 133.317 1839.93 138.514C1835.81 141.881 1833.77 146.534 1832.76 151.131C1831.74 155.719 1831.74 160.298 1831.74 163.56V163.575V202.025V202.525H1832.24H2110.25V311.833H1832.24Z" stroke="white" stroke-opacity="0.1"/>
<path fill-rule="evenodd" clip-rule="evenodd" d="M2727.58 5.85859H2600.58V311.273C2600.58 314.936 2600.58 323.72 2592.55 323.72C2586.71 323.72 2582.32 316.402 2578.68 311.273L2392.56 47.6059C2361.16 2.92584 2312.26 0 2284.52 0C2225.4 0 2169.92 24.1713 2169.92 90.8125V518.557H2296.93V214.602C2296.93 199.952 2304.96 199.952 2307.14 199.952C2312.25 199.952 2317.36 207.27 2321.01 212.406L2505.69 473.877C2537.8 519.413 2577.94 524.535 2616.63 524.535C2723.93 524.535 2727.57 451.186 2727.57 432.873V5.85859H2727.58Z" fill="#282828"/>
<path d="M2296.43 214.602V518.057H2170.42V90.8125C2170.42 57.6551 2184.21 35.1084 2205.33 20.83C2226.48 6.5332 2255.02 0.5 2284.52 0.5C2312.24 0.5 2360.91 3.43252 2392.15 47.8934L2392.15 47.8943L2578.27 311.561L2578.27 311.563C2578.65 312.098 2579.04 312.662 2579.44 313.241C2580.95 315.404 2582.6 317.786 2584.42 319.759C2586.73 322.257 2589.41 324.22 2592.55 324.22C2594.66 324.22 2596.27 323.642 2597.5 322.685C2598.72 321.732 2599.52 320.432 2600.04 319.047C2601.08 316.307 2601.08 313.122 2601.08 311.299V311.273V6.35859H2727.07V432.873C2727.07 442.002 2726.16 464.789 2711.93 485.286C2697.72 505.75 2670.16 524.035 2616.63 524.035C2597.31 524.035 2577.67 522.754 2558.87 515.813C2540.08 508.876 2522.1 496.276 2506.09 473.589L2506.09 473.588L2321.42 212.117L2321.42 212.116L2321.23 211.845C2319.44 209.337 2317.3 206.322 2314.98 203.907C2312.6 201.426 2309.92 199.452 2307.14 199.452H2307.13C2306.03 199.452 2303.32 199.452 2300.9 201.393C2298.46 203.354 2296.43 207.191 2296.43 214.602Z" stroke="white" stroke-opacity="0.1"/>
<path fill-rule="evenodd" clip-rule="evenodd" d="M3162.97 61.9724C3138.95 5.09913 3095.28 0 3046.5 0C2967.89 0 2946.04 24.0639 2930.04 61.9724L2741.39 516.253H2914.76L2954.78 411.252H3138.23L3178.25 516.253H3351.5L3162.97 61.9724ZM2994.08 294.578L3039.95 165.514C3045.69 151.159 3047.3 151.033 3053.05 165.514L3098.92 294.578H2994.08Z" fill="#282828"/>
<path d="M2954.78 410.752H2954.44L2954.31 411.074L2914.41 515.753H2742.14L2930.5 62.1668C2938.49 43.2519 2947.9 27.87 2965.06 17.1951C2982.23 6.51178 3007.24 0.5 3046.5 0.5C3070.89 0.5 3093.91 1.77812 3113.82 10.1199C3133.71 18.449 3150.54 33.8399 3162.51 62.1669L3350.75 515.753H3178.6L3138.69 411.074L3138.57 410.752H3138.23H2954.78ZM2993.61 294.411L2993.37 295.078H2994.08H3098.92H3099.63L3099.39 294.411L3053.52 165.346L3053.52 165.337L3053.51 165.329C3052.08 161.71 3050.88 158.971 3049.81 157.134C3049.28 156.217 3048.76 155.496 3048.23 155.001C3047.7 154.504 3047.13 154.195 3046.49 154.2C3045.86 154.206 3045.28 154.524 3044.76 155.026C3044.23 155.527 3043.71 156.251 3043.18 157.17C3042.11 159.01 3040.92 161.741 3039.49 165.328L3039.49 165.337L3039.48 165.346L2993.61 294.411Z" stroke="white" stroke-opacity="0.1"/>
</svg>
